cps 0.6

d1
 $ jux (slow 4)
 $ degradeBy 0.4
 $ every 2 (|*|gain "0")
 $ every 5 (|*|gain "0")
 $ every 7 ((|*|gain "0").(density(choose [2,5,7])).(|+|speed "-1"))
 $ stack [
          sound "[sf:3*30]" # gain (slow 2 (range 0.5 1.1 $ sine)) # speed "1",
          sound "[sf:4*30]" # speed "-1.3 -1.32 -1.32" # gain (slow 4 (range 0.7 0.8 $ rand))
         ]
 # nudge (slow 10 (range 4 8 $ saw))

hush
